!!!!SEGMENT: pl-wtm--r-1350--002_stefani-jozef--fraszka-muzyczna-tempo-alla-mazurek.krn
!!!cenid: 18xx:1851
!!!COM: Stefani, Józef
!!!COM-rismID:
!!!CDT: 1800/04/16-1876/03/19
!!!CNT: Polish
!!!GTL: Fraszka muzyczna
!!!OTL: Tempo Alla Mazurek
!!!PDT:
!!!AGN: Secular
!!!SMS-siglum: PL-Wtm
!!!SMS-shelfmark: R 1350
!!!SMS-shelfwork: 002 G
!!!SMS-variant:
!!!SMS-altvar:
!!!NIFC-rismSourceID: 1001119461
!!!NIFC-islandoraID: pl-wtm:25286
!!!URL-pdf-islandora: https://repozytorium.nifc.pl/islandora/object/pl-wtm%3A25286/datastream/PDF/view
!!!URL-scan: https://polish.musicsources.pl/pl/lokalizacje/galeria/rekopisy/6202 @EN{Scan on Polish Music Herritage in Open Access Website} @PL{Skany w portalu Dziedzictwo Muzyki Polskiej w otwartym dostępie}
!!!ONB-nifc: UWAGA: skan 0003. Następna Fraszka: Molto allegro
!!!OMD: Tempo Alla Mazurek
!!!AIN: 1 empty
!!!key:
**kern	**fing	**kern	**fing	**dynam
*part1	*part1	*part1	*part1	*part1
*staff2	*staff2	*staff1	*staff1	*
*Iempty	*	*Ipiano	*	*
*	*	*I"Piano	*	*
*clefG2	*	*clefG2	*	*
*k[b-]	*	*k[b-]	*	*
*C:	*	*C:	*	*
*M3/4	*	*M3/4	*	*
*>[A,B,B]	*	*>[A,B,B]	*	*
=1	=1	=1	=1	=1
*>A	*	*>A	*	*
*2\right	*	*2\right	*	*
!	!	!LO:TX:t=P:problem=all\right&colon; global	!	!
!LO:TX:t=P:problem=all\right&colon; global	!	!	!	!
!	!	!LO:TX:b:Bi:t=ręce w miejscu	!	!
!	!	!	!	!LO:DY:b:rj
4g 4c/	.	8ee\L	3	p
.	.	8dd#X\J	2	.
4g 4c/	.	4ee\	3	.
4g 4c/	.	4ee\	3	.
=2	=2	=2	=2	=2
2g 2c/	.	2gg 2ee^<\	3 5	.
4g 4c/	.	4ee 4cc\	1 3	.
=3	=3	=3	=3	=3
!LO:SIC:v:n=3:s=4Bn	!	!	!	!
4g 4f 4B-/	1	8dd\L	.	.
.	.	8cc\J	.	.
!LO:SIC:v:n=3:s=4Bn	!	!	!	!
4g 4f 4B-/	.	4dd\	.	.
!LO:SIC:v:n=3:s=4Bn	!	!	!	!
4g 4f 4B-/	.	4ee\	.	.
!!LO:LB:g=original
=4	=4	=4	=4	=4
2g 2e 2c/	.	2cc\	.	.
4g 4e 4c/	.	4gg\	.	.
=5	=5	=5	=5	=5
4g 4c/	.	8ee\L	.	.
.	.	8dd#X\J	.	.
4g 4c/	.	4ee\	.	.
4g 4c/	.	4ee\	.	.
=6	=6	=6	=6	=6
2g 2c/	.	2gg 2ee^<\	.	.
4g 4c/	.	4ee 4cc\	.	.
=7	=7	=7	=7	=7
!LO:SIC:v:n=3:s=4Bn	!	!	!	!
4g 4f 4B-/	5 2 1	8dd\L	.	.
.	.	8cc\J	.	.
!LO:SIC:v:n=3:s=4Bn	!	!	!	!
4g 4f 4B-/	.	4dd\	.	.
!LO:SIC:v:n=3:s=4Bn	!	!	!	!
4g 4f 4B-/	.	4ee\	.	.
=8	=8	=8	=8	=8
4g 4e 4c/	5 3 1	4cc\	.	.
4r	.	4r	.	.
4r	.	4r	.	.
!!LO:LB:g=original
=9!|:	=9!|:	=9!|:	=9!|:	=9!|:
*>B	*	*>B	*	*
!	!	!LO:TX:b:Bi:t=forte e staccato:dur=3qe:ext=s:problem=dynamics [text] with extention lines	!	!
!	!	!	!	!LO:DY:b:Bi:t=%sorte
8d/L	.	8dd|>\L	.	f
8e/J	.	8ee|>\J	.	.
4d/	.	4dd|>\	.	.
4g/	.	4gg|>\	.	.
=10	=10	=10	=10	=10
8d/L	.	8dd|>\L	.	.
8e/J	.	8ee|>\J	.	.
4d/	.	4dd|>\	.	.
4g/	.	4gg|>\	.	.
=11	=11	=11	=11	=11
8d/L	.	8dd|>\L	.	.
8e/J	.	8ee|>\J	.	.
4d/	.	4dd|>\	.	.
4f#X/	.	4ff#X|>\	.	.
=12	=12	=12	=12	=12
8g/L	.	8gg|>\L	.	.
8f#X/J	.	8ff#X|>\J	.	.
4g/	.	4gg|>\	.	.
4d/	.	4dd|>\	.	.
!!LO:LB:g=original
=13	=13	=13	=13	=13
8d/L	.	8dd|>\L	.	.
8e/J	.	8ee|>\J	.	.
4d/	.	4dd|>\	.	.
4g/	.	4gg|>\	.	.
=14	=14	=14	=14	=14
8d/L	.	8dd|>\L	.	.
8e/J	.	8ee|>\J	.	.
4d/	.	4dd|>\	.	.
4g/	.	4gg|>\	.	.
=15	=15	=15	=15	=15
8d/L	.	8dd|>\L	.	.
8e/J	.	8ee|>\J	.	.
4d/	.	4dd|>\	.	.
4f#X/	.	4ff#X|>\	.	.
=16	=16	=16	=16	=16
8g/L	.	8gg|>\L	.	.
8f#X/	.	8ff#X|>\	.	.
8g/	.	8gg|>\	.	.
8fn/	.	8ffn|>\	.	.
8e/	.	8ee|>\	.	.
8d/J	.	8dd|>\J	.	.
=17	=17	=17	=17	=17
4g 4c/	.	8ee|>\L	.	.
.	.	8dd#X|>\J	.	.
4g 4c/	.	4ee|>\	.	.
4g 4c/	.	4ee|>\	.	.
!!LO:LB:g=original
=18	=18	=18	=18	=18
2g 2c/	.	2gg 2ee^<|>\	.	.
4g 4c/	.	4ee 4cc|>\	.	.
=19	=19	=19	=19	=19
!LO:SIC:v:n=3:s=4Bn	!	!	!	!
4g 4f 4B-/	5 2 1	8dd|>\L	.	.
.	.	8cc|>\J	.	.
!LO:SIC:v:n=3:s=4Bn	!	!	!	!
4g 4f 4B-/	.	4dd|>\	.	.
!LO:SIC:v:n=3:s=4Bn	!	!	!	!
4g 4f 4B-/	.	4ee|>\	.	.
=20	=20	=20	=20	=20
2g 2e 2c/	5 3 1	2cc\	.	.
4g 4e 4c/	.	4gg\	.	.
=21	=21	=21	=21	=21
4g 4c/	.	8ee|>\L	.	.
.	.	8dd#X|>\J	.	.
4g 4c/	.	4ee|>\	.	.
4g 4c/	.	4ee|>\	.	.
=22	=22	=22	=22	=22
2g 2c/	.	2gg 2ee^<\	.	.
4g 4c/	.	4ee 4cc\	.	.
=23	=23	=23	=23	=23
!LO:SIC:v:n=3:s=4Bn	!	!	!	!
4g 4f 4B-/	.	8dd|>\L	.	.
.	.	8cc|>\J	.	.
!LO:SIC:v:n=3:s=4Bn	!	!	!	!
4g 4f 4B-/	.	4dd|>\	.	.
!LO:SIC:v:n=3:s=4Bn	!	!	!	!
4g 4f 4B-/	.	4ee|>\	.	.
=24	=24	=24	=24	=24
4g 4e 4c/	.	4cc|>\	.	.
4r	.	4r	.	.
4r	.	4r	.	.
==:|!	==:|!	==:|!	==:|!	==:|!
*-	*-	*-	*-	*-
!!!system-decoration: {(s1,s2)}
!!!RDF**kern: > = above
!!!RDF**kern: < = below
!!!RDF**kern: | = vertical stroke
!!!RDF**kern: N = linked
!!!RDF**kern: i = editorial accidental
!!!EED: Wojciech Jakubiak-Danek
!!!EEV: 2021-05-03
!!!ENC: Krzysztof Stępień
!!!END: 2021-04-10
